Catalina-light/actions/16/format-node-curve.svg

<svg xmlns="http://www.w3.org/2000/svg" width="16" height="16" viewBox="0 0 16 16">
 <defs>
  <style id="current-color-scheme" type="text/css">
   .ColorScheme-Text { color:#5c616c; } .ColorScheme-Highlight { color:#5294e2; }
  </style>
 </defs>
 <path style="fill:currentColor" class="ColorScheme-Text" d="M 12 1 L 12 2 L 12 2.0527344 A 12 12 0 0 0 5.0957031 5 L 3 5 L 3 7.4140625 A 12 12 0 0 0 1.0585938 13 L 1 13 L 0 13 L 0 16 L 3 16 L 3 13 L 2.0507812 13 A 11 11 0 0 1 3.796875 8 L 6 8 L 6 5.5429688 A 11 11 0 0 1 12 3.0566406 L 12 4 L 15 4 L 15 1 L 12 1 z"/>
</svg>

<svg width="16" height="16" viewBox="0 0 16 16" xmlns="http://www.w3.org/2000/svg">
<defs>
<style id="current-color-scheme" type="text/css">.ColorScheme-Text { color:#5c616c; } .ColorScheme-Highlight { color:#5294e2; }</style>
</defs>
<path class="ColorScheme-Text" d="m12 1v1 0.052734a12 12 0 0 0-6.9043 2.9473h-2.0957v2.4141a12 12 0 0 0-1.9414 5.5859h-0.058594-1v3h3v-3h-0.94922a11 11 0 0 1 1.7461-5h2.2031v-2.457a11 11 0 0 1 6-2.4863v0.94336h3v-3h-3z" fill="currentColor"/>
</svg>
